Sources/FrostedUI/Resources/Icons.xcassets/lockFilled12.imageset/lock-filled-12.svg

<svg width="12" height="12" viewBox="0 0 12 12" fill="none" xmlns="http://www.w3.org/2000/svg" data-fui-icon="true">
  <path
    d="M6 1.25C7.51878 1.25 8.75 2.48122 8.75 4V4.50977C10.0094 4.6117 11 5.66455 11 6.9502V9.5498C11 10.9029 9.9029 12 8.5498 12H3.4502C2.0971 12 1 10.9029 1 9.5498V6.9502C1 5.66455 1.99059 4.6117 3.25 4.50977V4C3.25 2.48122 4.48122 1.25 6 1.25ZM6 2.75C5.30964 2.75 4.75 3.30964 4.75 4V4.5H7.25V4C7.25 3.30964 6.69036 2.75 6 2.75Z"
    fill="currentColor"
  />
</svg>

<svg xmlns="http://www.w3.org/2000/svg" width="12" height="12" fill="none" data-fui-icon="true" viewBox="0 0 12 12"><path fill="currentColor" d="M6 1.25A2.75 2.75 0 0 1 8.75 4v.51A2.45 2.45 0 0 1 11 6.95v2.6A2.45 2.45 0 0 1 8.55 12h-5.1A2.45 2.45 0 0 1 1 9.55v-2.6a2.45 2.45 0 0 1 2.25-2.44V4A2.75 2.75 0 0 1 6 1.25m0 1.5c-.69 0-1.25.56-1.25 1.25v.5h2.5V4c0-.69-.56-1.25-1.25-1.25"/></svg>
